icons/live-photo.svg

<svg width="24" height="24" viewBox="0 0 24 24" fill="none" xmlns="http://www.w3.org/2000/svg">
<path fill-rule="evenodd" clip-rule="evenodd" d="M12 2C12.5523 2 13 2.44772 13 3V3.00999C13 3.56228 12.5523 4.00999 12 4.00999C11.4477 4.00999 11 3.56228 11 3.00999V3C11 2.44772 11.4477 2 12 2ZM7.99772 2.88951C8.55 2.88951 8.99772 3.33722 8.99772 3.88951V3.8995C8.99772 4.45179 8.55 4.8995 7.99772 4.8995C7.44543 4.8995 6.99772 4.45179 6.99772 3.8995V3.88951C6.99772 3.33722 7.44543 2.88951 7.99772 2.88951ZM16.0023 2.88951C16.5546 2.88951 17.0023 3.33722 17.0023 3.88951V3.8995C17.0023 4.45179 16.5546 4.8995 16.0023 4.8995C15.45 4.8995 15.0023 4.45179 15.0023 3.8995V3.88951C15.0023 3.33722 15.45 2.88951 16.0023 2.88951ZM4.77537 5.38812C5.32766 5.38812 5.77537 5.83583 5.77537 6.38812V6.39811C5.77537 6.9504 5.32766 7.39811 4.77537 7.39811C4.22309 7.39811 3.77537 6.9504 3.77537 6.39811V6.38812C3.77537 5.83583 4.22309 5.38812 4.77537 5.38812ZM19.2246 5.38812C19.7769 5.38812 20.2246 5.83583 20.2246 6.38812V6.39811C20.2246 6.9504 19.7769 7.39811 19.2246 7.39811C18.6723 7.39811 18.2246 6.9504 18.2246 6.39811V6.38812C18.2246 5.83583 18.6723 5.38812 19.2246 5.38812ZM12 7.99778C9.69335 7.99778 7.86887 9.81216 7.86887 11.995C7.86887 14.1778 9.69335 15.9922 12 15.9922C14.3067 15.9922 16.1311 14.1778 16.1311 11.995C16.1311 9.81216 14.3067 7.99778 12 7.99778ZM5.86887 11.995C5.86887 8.65806 8.63896 5.99778 12 5.99778C15.361 5.99778 18.1311 8.65806 18.1311 11.995C18.1311 15.3319 15.361 17.9922 12 17.9922C8.63896 17.9922 5.86887 15.3319 5.86887 11.995ZM3 8.99611C3.55228 8.99611 4 9.44383 4 9.99611V10.0061C4 10.5584 3.55228 11.0061 3 11.0061C2.44772 11.0061 2 10.5584 2 10.0061V9.99611C2 9.44383 2.44772 8.99611 3 8.99611ZM21 8.99611C21.5523 8.99611 22 9.44383 22 9.99611V10.0061C22 10.5584 21.5523 11.0061 21 11.0061C20.4477 11.0061 20 10.5584 20 10.0061V9.99611C20 9.44383 20.4477 8.99611 21 8.99611ZM9.97377 11.995C9.97377 10.866 10.906 9.99556 12 9.99556C13.094 9.99556 14.0262 10.866 14.0262 11.995C14.0262 13.124 13.094 13.9944 12 13.9944C10.906 13.9944 9.97377 13.124 9.97377 11.995ZM3 12.9939C3.55228 12.9939 4 13.4416 4 13.9939V14.0039C4 14.5562 3.55228 15.0039 3 15.0039C2.44772 15.0039 2 14.5562 2 14.0039V13.9939C2 13.4416 2.44772 12.9939 3 12.9939ZM21 12.9939C21.5523 12.9939 22 13.4416 22 13.9939V14.0039C22 14.5562 21.5523 15.0039 21 15.0039C20.4477 15.0039 20 14.5562 20 14.0039V13.9939C20 13.4416 20.4477 12.9939 21 12.9939ZM4.77537 16.6019C5.32766 16.6019 5.77537 17.0496 5.77537 17.6019V17.6119C5.77537 18.1642 5.32766 18.6119 4.77537 18.6119C4.22309 18.6119 3.77537 18.1642 3.77537 17.6119V17.6019C3.77537 17.0496 4.22309 16.6019 4.77537 16.6019ZM19.2246 16.6019C19.7769 16.6019 20.2246 17.0496 20.2246 17.6019V17.6119C20.2246 18.1642 19.7769 18.6119 19.2246 18.6119C18.6723 18.6119 18.2246 18.1642 18.2246 17.6119V17.6019C18.2246 17.0496 18.6723 16.6019 19.2246 16.6019ZM7.99772 19.1005C8.55 19.1005 8.99772 19.5482 8.99772 20.1005V20.1105C8.99772 20.6628 8.55 21.1105 7.99772 21.1105C7.44543 21.1105 6.99772 20.6628 6.99772 20.1105V20.1005C6.99772 19.5482 7.44543 19.1005 7.99772 19.1005ZM16.0023 19.1005C16.5546 19.1005 17.0023 19.5482 17.0023 20.1005V20.1105C17.0023 20.6628 16.5546 21.1105 16.0023 21.1105C15.45 21.1105 15.0023 20.6628 15.0023 20.1105V20.1005C15.0023 19.5482 15.45 19.1005 16.0023 19.1005ZM12 19.99C12.5523 19.99 13 20.4377 13 20.99V21C13 21.5523 12.5523 22 12 22C11.4477 22 11 21.5523 11 21V20.99C11 20.4377 11.4477 19.99 12 19.99Z" fill="black"/>
</svg>

<svg
  width="24"
  height="24"
  viewBox="0 0 24 24"
  xmlns="http://www.w3.org/2000/svg"
>
  <path
    fill-rule="evenodd"
    clip-rule="evenodd"
    d="M12 2a1 1 0 0 1 1 1v.01a1 1 0 1 1-2 0V3a1 1 0 0 1 1-1zm-4.002.89a1 1 0 0 1 1 1v.01a1 1 0 1 1-2 0v-.01a1 1 0 0 1 1-1zm8.004 0a1 1 0 0 1 1 1v.01a1 1 0 1 1-2 0v-.01a1 1 0 0 1 1-1zM4.775 5.388a1 1 0 0 1 1 1v.01a1 1 0 1 1-2 0v-.01a1 1 0 0 1 1-1zm14.45 0a1 1 0 0 1 1 1v.01a1 1 0 1 1-2 0v-.01a1 1 0 0 1 1-1zM12 7.998c-2.307 0-4.131 1.814-4.131 3.997S9.693 15.992 12 15.992c2.307 0 4.131-1.814 4.131-3.997S14.307 7.998 12 7.998zm-6.131 3.997c0-3.337 2.77-5.997 6.131-5.997s6.131 2.66 6.131 5.997c0 3.337-2.77 5.997-6.131 5.997s-6.131-2.66-6.131-5.997zM3 8.996a1 1 0 0 1 1 1v.01a1 1 0 1 1-2 0v-.01a1 1 0 0 1 1-1zm18 0a1 1 0 0 1 1 1v.01a1 1 0 1 1-2 0v-.01a1 1 0 0 1 1-1zM9.974 11.995c0-1.129.932-2 2.026-2 1.094 0 2.026.871 2.026 2s-.932 2-2.026 2c-1.094 0-2.026-.871-2.026-2zM3 12.994a1 1 0 0 1 1 1v.01a1 1 0 1 1-2 0v-.01a1 1 0 0 1 1-1zm18 0a1 1 0 0 1 1 1v.01a1 1 0 1 1-2 0v-.01a1 1 0 0 1 1-1zM4.775 16.602a1 1 0 0 1 1 1v.01a1 1 0 1 1-2 0v-.01a1 1 0 0 1 1-1zm14.45 0a1 1 0 0 1 1 1v.01a1 1 0 1 1-2 0v-.01a1 1 0 0 1 1-1zM7.998 19.1a1 1 0 0 1 1 1v.01a1 1 0 1 1-2 0v-.01a1 1 0 0 1 1-1zm8.004 0a1 1 0 0 1 1 1v.01a1 1 0 1 1-2 0v-.01a1 1 0 0 1 1-1zM12 19.99a1 1 0 0 1 1 1V21a1 1 0 1 1-2 0v-.01a1 1 0 0 1 1-1z"
  />
</svg>
